small/extra/status/standard/battery-080.svg

<?xml version="1.0" encoding="UTF-8" standalone="no"?>
<svg
   xmlns:dc="http://purl.org/dc/elements/1.1/"
   xmlns:cc="http://creativecommons.org/ns#"
   xmlns:rdf="http://www.w3.org/1999/02/22-rdf-syntax-ns#"
   xmlns:svg="http://www.w3.org/2000/svg"
   xmlns="http://www.w3.org/2000/svg"
   id="svg2"
   viewBox="0 0 512 512"
   height="100%"
   width="100%"
   version="1.1">
  <metadata
     id="metadata106">
    <rdf:RDF>
      <cc:Work
         rdf:about="">
        <dc:format>image/svg+xml</dc:format>
        <dc:type
           rdf:resource="http://purl.org/dc/dcmitype/StillImage" />
        <dc:title />
      </cc:Work>
    </rdf:RDF>
  </metadata>
  <defs
     id="defs104" />
  <rect
     width="512"
     height="512"
     rx="25.988001"
     x="-4.1699218e-06"
     y="-1.5429688e-06"
     id="rect4"
     style="fill:#999647;fill-opacity:1" />
  <path
     id="path3181"
     d="m 255.99998,41 c -22.44477,0 -44.79592,3.91583 -66.40625,10.9375 -43.22115,14.04339 -80.88159,41.39022 -107.59375,78.15624 -26.7119,36.76602 -41.1875,80.64848 -41.1875,126.09376 0,45.4453 14.4756,89.32773 41.1875,126.09375 6.66187,9.16925 13.99729,17.74728 21.9375,25.6875 L 207.96873,512 l 278.03125,0 c 14.39735,0 26,-11.60265 26,-26 l 0,-277.65625 L 408.09373,104.43749 C 384.19081,80.53457 354.86081,62.48268 322.40623,51.9375 300.79564,44.91583 278.4445,41 255.99998,41 Z"
     style="opacity:0.25;fill:#000000;fill-opacity:1;stroke:none" />
  <g
     id="g8"
     style="fill:#ffffff"
     transform="matrix(0.68258418,0,0,0.68258418,81.26214,81.27569)">
    <path
       d="m -80.26,130.11 c 0.082,-0.262 -0.086,-0.522 -0.375,-0.522 l -4.908,0 c -0.289,0 -0.352,-0.235 -0.167,-0.446 l 10.486,-13.416 c 0.185,-0.212 0.252,-0.175 0.148,0.082 l -2.303,9.37 c -0.104,0.257 0.047,0.411 0.336,0.411 l 4.919,0 c 0.289,0 0.382,0.232 0.205,0.451 l -10.511,13.407 c -0.176,0.219 -0.254,0.18 -0.17,-0.082 z"
       transform="matrix(17.85529,0,0,17.85529,1663.4,-2022.08)"
       id="path10"
       style="fill:#ffffff;fill-rule:evenodd" />
  </g>
  <path
     id="path3096"
     d="m 255.99998,41 c -22.44477,0 -44.79592,3.91583 -66.40625,10.9375 -43.22115,14.04339 -80.88159,41.39022 -107.59375,78.15624 -26.7119,36.76602 -41.1875,80.64848 -41.1875,126.09376 0,45.4453 14.4756,89.32773 41.1875,126.09375 26.71216,36.76602 64.3726,64.14414 107.59375,78.1875 43.2209,14.04339 89.59133,14.04339 132.8125,0 43.22089,-14.04336 80.88159,-41.42148 107.59375,-78.1875 26.71217,-36.76602 41.1875,-80.64845 41.1875,-126.09375 0,-45.44528 -14.47533,-89.32774 -41.1875,-126.09376 C 403.28782,93.32772 365.62713,65.98089 322.40623,51.9375 300.79564,44.91583 278.4445,41 255.99998,41 Z m 0,45.65625 c 18.23854,0 35.63045,3.51366 52.09375,8.84375 34.5432,11.1837 63.91858,33.028 84.78125,61.81249 20.23899,27.92408 32.65625,61.75073 32.65625,98.87501 0,37.12427 -12.41726,70.98218 -32.65625,98.90625 -20.86267,28.78448 -50.23805,50.62885 -84.78125,61.8125 -16.4633,5.33013 -33.85521,8.8125 -52.09375,8.8125 -18.23853,0 -35.63071,-3.48237 -52.09375,-8.8125 -34.54319,-11.18365 -63.91859,-33.02802 -84.78125,-61.8125 -20.23899,-27.92407 -32.65625,-61.78198 -32.65625,-98.90625 0,-37.12428 12.41726,-70.95093 32.65625,-98.87501 C 139.98764,128.528 169.36304,106.6837 203.90623,95.5 c 16.46304,-5.33009 33.85522,-8.84375 52.09375,-8.84375 z"
     style="opacity:0.4;fill:#ffffff;fill-opacity:1;stroke:none" />
  <path
     id="path3589"
     d="m 256.49998,41 0,45.65625 c 18.05583,0.0637 35.28148,3.56255 51.59375,8.84375 34.5432,11.1837 63.91858,33.028 84.78125,61.81249 20.23899,27.92408 32.65625,61.75073 32.65625,98.87501 0,37.12427 -12.41726,70.98218 -32.65625,98.90625 -20.86267,28.78448 -50.23805,50.62885 -84.78125,61.8125 -16.4633,5.33013 -33.85521,8.8125 -52.09375,8.8125 -18.23853,0 -35.63071,-3.48237 -52.09375,-8.8125 -34.54319,-11.18365 -63.91859,-33.02802 -84.78125,-61.8125 -20.23899,-27.92407 -32.65625,-61.78198 -32.65625,-98.90625 0,-15.45593 2.15205,-30.34396 6.125,-44.46875 L 48.40623,199.875 c -4.99313,18.21364 -7.59375,37.1235 -7.59375,56.3125 0,45.4453 14.4756,89.32773 41.1875,126.09375 26.71216,36.76602 64.3726,64.14414 107.59375,78.1875 43.2209,14.04339 89.59133,14.04339 132.8125,0 43.22089,-14.04336 80.88159,-41.42148 107.59375,-78.1875 26.71217,-36.76602 41.1875,-80.64845 41.1875,-126.09375 0,-45.44528 -14.47533,-89.32774 -41.1875,-126.09376 C 403.28782,93.32772 365.62713,65.98089 322.40623,51.9375 300.95571,44.96784 278.77685,41.05753 256.49998,41 Z"
     style="fill:#ffffff;fill-opacity:1;stroke:none" />
</svg>

<?xml version="1.0" encoding="UTF-8" standalone="no"?>
<!-- Created with Inkscape (http://www.inkscape.org/) -->

<svg
   xmlns:dc="http://purl.org/dc/elements/1.1/"
   xmlns:cc="http://creativecommons.org/ns#"
   xmlns:rdf="http://www.w3.org/1999/02/22-rdf-syntax-ns#"
   xmlns:svg="http://www.w3.org/2000/svg"
   xmlns="http://www.w3.org/2000/svg"
   xmlns:sodipodi="http://sodipodi.sourceforge.net/DTD/sodipodi-0.dtd"
   xmlns:inkscape="http://www.inkscape.org/namespaces/inkscape"
   version="1.1"
   width="100%"
   height="100%"
   viewBox="0 0 512 512"
   id="svg2"
   inkscape:version="0.48.5 r10040"
   sodipodi:docname="battery-charging-080.svg">
  <sodipodi:namedview
     pagecolor="#ffffff"
     bordercolor="#666666"
     borderopacity="1"
     objecttolerance="10"
     gridtolerance="10"
     guidetolerance="10"
     inkscape:pageopacity="0"
     inkscape:pageshadow="2"
     inkscape:window-width="1307"
     inkscape:window-height="748"
     id="namedview80"
     showgrid="false"
     inkscape:zoom="0.32593203"
     inkscape:cx="350.54093"
     inkscape:cy="315.99348"
     inkscape:window-x="57"
     inkscape:window-y="-3"
     inkscape:window-maximized="1"
     inkscape:current-layer="svg2" />
  <metadata
     id="metadata158">
    <rdf:RDF>
      <cc:Work
         rdf:about="">
        <dc:format>image/svg+xml</dc:format>
        <dc:type
           rdf:resource="http://purl.org/dc/dcmitype/StillImage" />
        <dc:title></dc:title>
      </cc:Work>
    </rdf:RDF>
  </metadata>
  <defs
     id="defs156" />
  <rect
     style="fill:#999647;fill-opacity:1"
     id="rect4"
     y="0"
     x="0"
     rx="25.988001"
     height="512"
     width="512" />
  <path
     style="fill:#000000;fill-opacity:1;stroke:none;opacity:0.25"
     d="M 256 41 C 233.55523 41 211.20408 44.91583 189.59375 51.9375 C 146.3726 65.98089 108.71216 93.327719 82 130.09375 C 55.2881 166.85977 40.8125 210.74222 40.8125 256.1875 C 40.8125 301.6328 55.2881 345.51523 82 382.28125 C 88.66187 391.4505 95.997287 400.02853 103.9375 407.96875 L 207.96875 512 L 486 512 C 500.39735 512 512 500.39735 512 486 L 512 208.34375 L 408.09375 104.4375 C 384.19083 80.534572 354.86083 62.482683 322.40625 51.9375 C 300.79566 44.91583 278.44452 41 256 41 z "
     id="path3181" />
  <text
     style="font-size:157.21000671px;line-height:125%;letter-spacing:0;word-spacing:0;font-family:Gentium Book Basic"
     id="text12"
     y="226.02"
     x="881.22998">
    <tspan
       id="tspan14"
       y="226.02"
       x="881.22998" />
  </text>
  <text
     style="font-size:57.11999893px;text-anchor:middle;font-family:Arial"
     id="text16"
     transform="scale(4.0128,0.2492)"
     y="482.22"
     x="459.35999" />
  <text
     style="font-size:157.21000671px;line-height:125%;letter-spacing:0;word-spacing:0;font-family:Gentium Book Basic"
     id="text18"
     y="128.69"
     x="1588.38">
    <tspan
       id="tspan20"
       y="128.69"
       x="1588.38" />
  </text>
  <text
     style="font-size:57.11999893px;text-anchor:middle;font-family:Arial"
     id="text22"
     transform="scale(4.0128,0.2492)"
     y="91.660004"
     x="635.59003" />
  <text
     style="font-size:157.21000671px;line-height:125%;letter-spacing:0;word-spacing:0;font-family:Gentium Book Basic"
     id="text24"
     y="-91.82"
     x="284.73001">
    <tspan
       id="tspan26"
       y="-91.82"
       x="284.73001" />
  </text>
  <text
     style="font-size:57.11999893px;text-anchor:middle;font-family:Arial"
     id="text28"
     transform="scale(4.0128,0.2492)"
     y="-793.21997"
     x="310.72" />
  <text
     style="font-size:157.21000671px;line-height:125%;letter-spacing:0;word-spacing:0;font-family:Gentium Book Basic"
     id="text30"
     y="-355.17999"
     x="1620.58">
    <tspan
       id="tspan32"
       y="-355.17999"
       x="1620.58" />
  </text>
  <text
     style="font-size:57.11999893px;text-anchor:middle;font-family:Arial"
     id="text34"
     transform="scale(4.0128,0.2492)"
     y="-1850.03"
     x="643.60999" />
  <text
     style="font-size:157.21000671px;line-height:125%;letter-spacing:0;word-spacing:0;font-family:Gentium Book Basic"
     id="text36"
     y="-452.5"
     x="2327.74">
    <tspan
       id="tspan38"
       y="-452.5"
       x="2327.74" />
  </text>
  <text
     style="font-size:57.11999893px;text-anchor:middle;font-family:Arial"
     id="text40"
     transform="scale(4.0128,0.2492)"
     y="-2240.5901"
     x="819.84003" />
  <text
     style="font-size:157.21000671px;line-height:125%;letter-spacing:0;word-spacing:0;font-family:Gentium Book Basic"
     id="text42"
     y="-1027.21"
     x="1854.34">
    <tspan
       id="tspan44"
       y="-1027.21"
       x="1854.34" />
  </text>
  <text
     style="font-size:57.11999893px;text-anchor:middle;font-family:Arial"
     id="text46"
     transform="scale(4.0128,0.2492)"
     y="-4546.7998"
     x="701.87" />
  <text
     style="font-size:157.21000671px;line-height:125%;letter-spacing:0;word-spacing:0;font-family:Gentium Book Basic"
     id="text48"
     y="-1124.54"
     x="2561.5">
    <tspan
       id="tspan50"
       y="-1124.54"
       x="2561.5" />
  </text>
  <text
     style="font-size:57.11999893px;text-anchor:middle;font-family:Arial"
     id="text52"
     transform="scale(4.0128,0.2492)"
     y="-4937.3701"
     x="878.09003" />
  <g
     style="line-height:125%;letter-spacing:0;word-spacing:0;font-family:Gentium Book Basic"
     id="g54">
    <text
       style="font-size:253.44999695px"
       id="text56"
       y="596.56"
       x="331.75">
      <tspan
         id="tspan58"
         y="596.56"
         x="331.75" />
    </text>
    <text
       style="font-size:129.22999573px"
       id="text60"
       y="231.36"
       x="720.78998">
      <tspan
         id="tspan62"
         y="231.36"
         x="720.78998" />
    </text>
  </g>
  <text
     style="font-size:46.95399857px;text-anchor:middle;font-family:Arial"
     id="text64"
     transform="scale(4.0128,0.2492)"
     y="579.25"
     x="376.70001" />
  <text
     style="font-size:129.22999573px;line-height:125%;letter-spacing:0;word-spacing:0;font-family:Gentium Book Basic"
     id="text66"
     y="151.36"
     x="1302.0601">
    <tspan
       id="tspan68"
       y="151.36"
       x="1302.0601" />
  </text>
  <text
     style="font-size:46.95399857px;text-anchor:middle;font-family:Arial"
     id="text70"
     transform="scale(4.0128,0.2492)"
     y="258.22"
     x="521.54999" />
  <text
     style="font-size:129.22999573px;line-height:125%;letter-spacing:0;word-spacing:0;font-family:Gentium Book Basic"
     id="text72"
     y="-29.900999"
     x="230.48">
    <tspan
       id="tspan74"
       y="-29.900999"
       x="230.48" />
  </text>
  <text
     style="font-size:46.95399857px;text-anchor:middle;font-family:Arial"
     id="text76"
     transform="scale(4.0128,0.2492)"
     y="-469.14001"
     x="254.50999" />
  <text
     style="font-size:129.22999573px;line-height:125%;letter-spacing:0;word-spacing:0;font-family:Gentium Book Basic"
     id="text78"
     y="-246.37"
     x="1328.53">
    <tspan
       id="tspan80"
       y="-246.37"
       x="1328.53" />
  </text>
  <text
     style="font-size:46.95399857px;text-anchor:middle;font-family:Arial"
     id="text82"
     transform="scale(4.0128,0.2492)"
     y="-1337.8101"
     x="528.15002" />
  <text
     style="font-size:129.22999573px;line-height:125%;letter-spacing:0;word-spacing:0;font-family:Gentium Book Basic"
     id="text84"
     y="-326.38"
     x="1909.79">
    <tspan
       id="tspan86"
       y="-326.38"
       x="1909.79" />
  </text>
  <text
     style="font-size:46.95399857px;text-anchor:middle;font-family:Arial"
     id="text88"
     transform="scale(4.0128,0.2492)"
     y="-1658.85"
     x="673" />
  <text
     style="font-size:129.22999573px;line-height:125%;letter-spacing:0;word-spacing:0;font-family:Gentium Book Basic"
     id="text90"
     y="-798.78003"
     x="1520.67">
    <tspan
       id="tspan92"
       y="-798.78003"
       x="1520.67" />
  </text>
  <text
     style="font-size:46.95399857px;text-anchor:middle;font-family:Arial"
     id="text94"
     transform="scale(4.0128,0.2492)"
     y="-3554.51"
     x="576.03003" />
  <text
     style="font-size:129.22999573px;line-height:125%;letter-spacing:0;word-spacing:0;font-family:Gentium Book Basic"
     id="text96"
     y="-878.78003"
     x="2101.9399">
    <tspan
       id="tspan98"
       y="-878.78003"
       x="2101.9399" />
  </text>
  <text
     style="font-size:46.95399857px;text-anchor:middle;font-family:Arial"
     id="text100"
     transform="scale(4.0128,0.2492)"
     y="-3875.54"
     x="720.88" />
  <g
     style="line-height:125%;letter-spacing:0;word-spacing:0;font-family:Gentium Book Basic"
     id="g102">
    <text
       style="font-size:208.33000183px"
       id="text104"
       y="535.94"
       x="269.13">
      <tspan
         id="tspan106"
         y="535.94"
         x="269.13" />
    </text>
    <text
       style="font-size:129.22999573px"
       id="text108"
       y="231.36"
       x="677.52002">
      <tspan
         id="tspan110"
         y="231.36"
         x="677.52002" />
    </text>
  </g>
  <text
     style="font-size:46.95399857px;text-anchor:middle;font-family:Arial"
     id="text112"
     transform="scale(4.0128,0.2492)"
     y="579.25"
     x="365.92001" />
  <text
     style="font-size:129.22999573px;line-height:125%;letter-spacing:0;word-spacing:0;font-family:Gentium Book Basic"
     id="text114"
     y="151.36"
     x="1258.79">
    <tspan
       id="tspan116"
       y="151.36"
       x="1258.79" />
  </text>
  <text
     style="font-size:46.95399857px;text-anchor:middle;font-family:Arial"
     id="text118"
     transform="scale(4.0128,0.2492)"
     y="258.22"
     x="510.76999" />
  <text
     style="font-size:129.22999573px;line-height:125%;letter-spacing:0;word-spacing:0;font-family:Gentium Book Basic"
     id="text120"
     y="-29.900999"
     x="187.21001">
    <tspan
       id="tspan122"
       y="-29.900999"
       x="187.21001" />
  </text>
  <text
     style="font-size:46.95399857px;text-anchor:middle;font-family:Arial"
     id="text124"
     transform="scale(4.0128,0.2492)"
     y="-469.14001"
     x="243.73" />
  <text
     style="font-size:129.22999573px;line-height:125%;letter-spacing:0;word-spacing:0;font-family:Gentium Book Basic"
     id="text126"
     y="-246.37"
     x="1285.26">
    <tspan
       id="tspan128"
       y="-246.37"
       x="1285.26" />
  </text>
  <text
     style="font-size:46.95399857px;text-anchor:middle;font-family:Arial"
     id="text130"
     transform="scale(4.0128,0.2492)"
     y="-1337.8101"
     x="517.37" />
  <text
     style="font-size:129.22999573px;line-height:125%;letter-spacing:0;word-spacing:0;font-family:Gentium Book Basic"
     id="text132"
     y="-326.38"
     x="1866.53">
    <tspan
       id="tspan134"
       y="-326.38"
       x="1866.53" />
  </text>
  <text
     style="font-size:46.95399857px;text-anchor:middle;font-family:Arial"
     id="text136"
     transform="scale(4.0128,0.2492)"
     y="-1658.85"
     x="662.21997" />
  <text
     style="font-size:129.22999573px;line-height:125%;letter-spacing:0;word-spacing:0;font-family:Gentium Book Basic"
     id="text138"
     y="-798.78003"
     x="1477.41">
    <tspan
       id="tspan140"
       y="-798.78003"
       x="1477.41" />
  </text>
  <text
     style="font-size:46.95399857px;text-anchor:middle;font-family:Arial"
     id="text142"
     transform="scale(4.0128,0.2492)"
     y="-3554.51"
     x="565.25" />
  <text
     style="font-size:129.22999573px;line-height:125%;letter-spacing:0;word-spacing:0;font-family:Gentium Book Basic"
     id="text144"
     y="-878.78003"
     x="2058.6699">
    <tspan
       id="tspan146"
       y="-878.78003"
       x="2058.6699" />
  </text>
  <text
     style="font-size:46.95399857px;text-anchor:middle;font-family:Arial"
     id="text148"
     transform="scale(4.0128,0.2492)"
     y="-3875.54"
     x="710.09998" />
  <text
     style="font-size:208.33000183px;line-height:125%;letter-spacing:0;word-spacing:0;font-family:Gentium Book Basic"
     id="text150"
     y="535.94"
     x="225.87">
    <tspan
       id="tspan152"
       y="535.94"
       x="225.87" />
  </text>
  <g
     transform="matrix(0.68258418,0,0,0.68258418,81.262156,81.275693)"
     style="fill:#ffffff"
     id="g8">
    <path
       style="fill:#ffffff;fill-rule:evenodd"
       id="path10"
       transform="matrix(17.85529,0,0,17.85529,1663.4,-2022.08)"
       inkscape:connector-curvature="0"
       d="m -80.26,130.11 c 0.082,-0.262 -0.086,-0.522 -0.375,-0.522 h -4.908 c -0.289,0 -0.352,-0.235 -0.167,-0.446 l 10.486,-13.416 c 0.185,-0.212 0.252,-0.175 0.148,0.082 l -2.303,9.37 c -0.104,0.257 0.047,0.411 0.336,0.411 h 4.919 c 0.289,0 0.382,0.232 0.205,0.451 l -10.511,13.407 c -0.176,0.219 -0.254,0.18 -0.17,-0.082 z" />
  </g>
  <path
     inkscape:connector-curvature="0"
     style="fill:#ffffff;fill-opacity:1;stroke:none;opacity:0.4"
     d="M 256,41 C 233.55523,41 211.20408,44.91583 189.59375,51.9375 146.3726,65.98089 108.71216,93.327719 82,130.09375 55.2881,166.85977 40.8125,210.74222 40.8125,256.1875 c 0,45.4453 14.4756,89.32773 41.1875,126.09375 26.71216,36.76602 64.3726,64.14414 107.59375,78.1875 43.2209,14.04339 89.59133,14.04339 132.8125,0 C 365.62714,446.42539 403.28784,419.04727 430,382.28125 456.71217,345.51523 471.1875,301.6328 471.1875,256.1875 471.1875,210.74222 456.71217,166.85977 430,130.09375 403.28784,93.327719 365.62715,65.98089 322.40625,51.9375 300.79566,44.91583 278.44452,41 256,41 z m 0,45.65625 c 18.23854,0 35.63045,3.513659 52.09375,8.84375 34.5432,11.18371 63.91858,33.02801 84.78125,61.8125 20.23899,27.92407 32.65625,61.75072 32.65625,98.875 0,37.12427 -12.41726,70.98218 -32.65625,98.90625 -20.86267,28.78448 -50.23805,50.62885 -84.78125,61.8125 -16.4633,5.33013 -33.85521,8.8125 -52.09375,8.8125 -18.23853,0 -35.63071,-3.48237 -52.09375,-8.8125 C 169.36306,405.7226 139.98766,383.87823 119.125,355.09375 98.886008,327.16968 86.46875,293.31177 86.46875,256.1875 c 0,-37.12428 12.417258,-70.95093 32.65625,-98.875 C 139.98766,128.52801 169.36306,106.68371 203.90625,95.5 220.36929,90.169909 237.76147,86.65625 256,86.65625 z"
     id="path3096" />
  <path
     style="fill:#ffffff;fill-opacity:1;stroke:none"
     d="M 256.5 41 L 256.5 86.65625 C 274.55583 86.719982 291.78148 90.218805 308.09375 95.5 C 342.63695 106.68371 372.01233 128.52801 392.875 157.3125 C 413.11399 185.23657 425.53125 219.06322 425.53125 256.1875 C 425.53125 293.31177 413.11399 327.16968 392.875 355.09375 C 372.01233 383.87823 342.63695 405.7226 308.09375 416.90625 C 291.63045 422.23638 274.23854 425.71875 256 425.71875 C 237.76147 425.71875 220.36929 422.23638 203.90625 416.90625 C 169.36306 405.7226 139.98766 383.87823 119.125 355.09375 C 98.886008 327.16968 86.46875 293.31177 86.46875 256.1875 C 86.46875 240.73157 88.620802 225.84354 92.59375 211.71875 L 48.40625 199.875 C 43.413118 218.08864 40.8125 236.9985 40.8125 256.1875 C 40.8125 301.6328 55.2881 345.51523 82 382.28125 C 108.71216 419.04727 146.3726 446.42539 189.59375 460.46875 C 232.81465 474.51214 279.18508 474.51214 322.40625 460.46875 C 365.62714 446.42539 403.28784 419.04727 430 382.28125 C 456.71217 345.51523 471.1875 301.6328 471.1875 256.1875 C 471.1875 210.74222 456.71217 166.85977 430 130.09375 C 403.28784 93.327719 365.62715 65.98089 322.40625 51.9375 C 300.95573 44.96784 278.77687 41.057535 256.5 41 z "
     id="path3589" />
</svg>
